packages/kaspersky-hexa-ui-icons/src/iconsSVGs/48/IPhone.svg

<svg xmlns="http://www.w3.org/2000/svg" width="48" height="48" fill="none" viewBox="0 0 48 48"><path fill="currentColor" fill-rule="evenodd" d="M22 42h4v2h-4zM38 0v48H10V0zM12 2v4h24V2zm0 6v30h24V8zm24 38v-6H12v6z" clip-rule="evenodd"/></svg>

<svg width="48" height="48" viewBox="0 0 48 48" fill="none" xmlns="http://www.w3.org/2000/svg">
<path fill-rule="evenodd" clip-rule="evenodd" d="M22 42H26V44H22V42ZM38 0V48H10V0H38ZM12 2V6H36V2H12ZM12 8V38H36V8H12ZM36 46V40H12V46H36Z"  fill="currentColor"/>
</svg>
